findly-builder/apps/searchassist/src/assets/icons/bg-new-user.svg

<svg width="380" height="170" viewBox="0 0 380 170" fill="none" xmlns="http://www.w3.org/2000/svg">
<g opacity="0.8" clip-path="url(#clip0_428_18174)">
<rect x="-470" y="-611" width="1466" height="1061" fill="url(#paint0_linear_428_18174)"/>
<path d="M-373 81.1878C-494.6 99.9878 -544 28.6878 -553.5 -9.31224H-646.5V413.688H1013V-143.812C860.5 -180.312 734 -112.812 633.5 -35.3122C533 42.1878 383 112.188 161 29.1878C-61 -53.8122 -221 57.6878 -373 81.1878Z" fill="url(#paint1_linear_428_18174)"/>
<path d="M-261.5 163.188C-383.1 181.988 -432.5 110.688 -442 72.6878H-535V495.688H1124.5V-61.8122C972 -98.3122 845.5 -30.8122 745 46.6878C644.5 124.188 494.5 194.188 272.5 111.188C50.5 28.1878 -109.5 139.688 -261.5 163.188Z" fill="url(#paint2_linear_428_18174)"/>
<path d="M-196.5 195.188C-318.1 213.988 -367.5 142.688 -377 104.688H-470V527.688H1189.5V-29.8122C1037 -66.3122 910.5 1.18776 810 78.6878C709.5 156.188 559.5 226.188 337.5 143.188C115.5 60.1878 -44.5 171.688 -196.5 195.188Z" fill="url(#paint3_linear_428_18174)"/>
</g>
<defs>
<linearGradient id="paint0_linear_428_18174" x1="59.5" y1="-103.5" x2="122.5" y2="426.5" gradientUnits="userSpaceOnUse">
<stop stop-color="#FFF5E7"/>
<stop offset="1" stop-color="#FF9D6B"/>
</linearGradient>
<linearGradient id="paint1_linear_428_18174" x1="510" y1="245" x2="113.5" y2="-163" gradientUnits="userSpaceOnUse">
<stop stop-color="white" stop-opacity="0.6"/>
<stop offset="1" stop-color="white"/>
</linearGradient>
<linearGradient id="paint2_linear_428_18174" x1="621.5" y1="327" x2="225" y2="-81" gradientUnits="userSpaceOnUse">
<stop stop-color="white" stop-opacity="0.6"/>
<stop offset="1" stop-color="white"/>
</linearGradient>
<linearGradient id="paint3_linear_428_18174" x1="686.5" y1="359" x2="290" y2="-49" gradientUnits="userSpaceOnUse">
<stop stop-color="white" stop-opacity="0.6"/>
<stop offset="1" stop-color="white"/>
</linearGradient>
<clipPath id="clip0_428_18174">
<rect width="1129" height="635" fill="white" transform="translate(-420 -465)"/>
</clipPath>
</defs>
</svg>

<svg width="380" height="170" fill="none" xmlns="http://www.w3.org/2000/svg"><g opacity=".8" clip-path="url(#a)"><path fill="url(#b)" d="M-470-611H996V450H-470z"/><path d="M-373 81.188c-121.6 18.8-171-52.5-180.5-90.5h-93v423H1013v-557.5c-152.5-36.5-279 31-379.5 108.5S383 112.188 161 29.188s-382 28.5-534 52Z" fill="url(#c)"/><path d="M-261.5 163.188c-121.6 18.8-171-52.5-180.5-90.5h-93v423h1659.5v-557.5c-152.5-36.5-279 31-379.5 108.5s-250.5 147.5-472.5 64.5-382 28.5-534 52Z" fill="url(#d)"/><path d="M-196.5 195.188c-121.6 18.8-171-52.5-180.5-90.5h-93v423h1659.5v-557.5c-152.5-36.5-279 31-379.5 108.5s-250.5 147.5-472.5 64.5-382 28.5-534 52Z" fill="url(#e)"/></g><defs><linearGradient id="b" x1="59.5" y1="-103.5" x2="122.5" y2="426.5" gradientUnits="userSpaceOnUse"><stop stop-color="#FFF5E7"/><stop offset="1" stop-color="#FF9D6B"/></linearGradient><linearGradient id="c" x1="510" y1="245" x2="113.5" y2="-163" gradientUnits="userSpaceOnUse"><stop stop-color="#fff" stop-opacity=".6"/><stop offset="1" stop-color="#fff"/></linearGradient><linearGradient id="d" x1="621.5" y1="327" x2="225" y2="-81" gradientUnits="userSpaceOnUse"><stop stop-color="#fff" stop-opacity=".6"/><stop offset="1" stop-color="#fff"/></linearGradient><linearGradient id="e" x1="686.5" y1="359" x2="290" y2="-49" gradientUnits="userSpaceOnUse"><stop stop-color="#fff" stop-opacity=".6"/><stop offset="1" stop-color="#fff"/></linearGradient><clipPath id="a"><path fill="#fff" transform="translate(-420 -465)" d="M0 0h1129v635H0z"/></clipPath></defs></svg>
